X: 1
T: Lads Of Dunse, The
M: 6/8
L: 1/8
R: jig
K: Dmaj
|:B | AFD DFD | DFA B2A | Bcd AFA | BEE EdB |
AFD DFD | DFA B2A | Bcd AFA | FDD D2 :|
|: g | fef d2e | fga B2A | Bcd AFG | BEE E2g |
fef d2e | fga B2A | Bcd AFA | FDD D2 :|
